X:1
T:Title
%%score { ( 1 3 ) | ( 2 4 ) }
L:1/8
Q:1/4=100
M:4/4
K:D
V:1 treble nm="Grand Piano"
V:3 treble 
V:2 bass 
V:4 bass 
V:1
 D2 D>E F2 F>[EG] | [FA]2 [GB]2 [FA]2 [DF]2 | [CE]2 [CE]>[DF] [EG]2 [DF]>[CE] | [DF]2 [EG]2 [FA]4 | %4
w: Farnk~M.~Davis * * * * *||||
 [Fd]2 [Ac]>[GB] [FA]2 [DF]>[DF] | [GB]2 [FA]>[EG] F2 D2 | z E [A,DF]>[A,EG] [DFA]2 [DGB]>[B,EG] | %7
w: |||
 [DF]2[K:bass] [G,CE]2 [F,D]4 | A2 A>A A2 B>[Gc] | [Fd]2 [Ec]2 [Fd]2 [FA]2 | B2 B>B B2 [FA]>[Fd] | %11
w: ||||
 [EAc]2 [D^GB]2 [CA]4 | [DFd]2 [Ac]>[GB] [FA]2 [DF]>[DF] | [GB]2 [FA]>[EG] F2 D2 | %14
w: |||
 z E [A,DF]>[A,EG] [DFA]2 [DGB]>[B,EG] | [DF]2[K:bass] [G,CE]2 [F,D]4 |] %16
w: ||
V:2
 [D,F,]2 [D,F,]>[D,G,D] [D,A,D]2 [D,A,D]>[D,A,] | [D,D]2 [D,D]2 [D,D]2 [D,A,]2 | %2
 [A,,A,]2 [A,,A,]>[A,,A,] [A,,A,]2 [A,,A,]>[A,,A,] | [D,A,]2 [D,A,]2 [D,D]4 | %4
 [D,A,]2 [D,A,]>[D,A,] [D,D]2 [D,A,]>[D,A,] | [D,D]2 [D,D]>[D,A,] [D,A,D]2 [D,F,]2 | %6
 F,G, D,>D, D,2 G,>G, | A,2 A,,2 D,4 | A,2 A,>A, A,2 [G,B,G]>[E,A,] | %9
 [D,A,]2 [A,,A,]2 [D,A,]2 [D,D]2 | [G,DG]2 [G,DG]>[G,DG] [G,DG]2[K:bass] [D,D]>[D,A,] | %11
 E,2 E,2 z2 G2 | D,2 [D,A,]>[D,A,] [D,D]2 [D,A,]>[D,A,] | [D,D]2 [D,D]>[D,A,] [D,A,D]2 [D,F,]2 | %14
 .F,2 z2 z4 | A,2 A,,2 D,4 |] %16
V:3
 x8 | x8 | x8 | x8 | x8 | x8 | D2 z2 z4 | x2[K:bass] x6 | x8 | x8 | x8 | x8 | x8 | x8 | D2 z2 z4 | %15
 x2[K:bass] x6 |] %16
V:4
 x8 | x8 | x8 | x8 | x8 | x8 | D,2 z2 z4 | x8 | x8 | x8 | x6[K:bass] x2 | z4 A,4 | x8 | x8 | %14
 D,-[D,G,] D,>D, D,2 G,>G, | x8 |] %16

